X:1
T:[ID 1-139a]
T:[ID 1-139a]
T:Bezeichnung standardisiert: Menuett Menuet Primo
T:Urheber unbekannt Datum in der hier transkribierten schriftlichen Quelle: 1773
C:Urheber unbekannt
C:Datum in der hier transkribierten schriftlichen Quelle: 1773
L:1/8
M:3/4
K:D
V:1 treble 
V:1
 D2 F2 A2 | d4 fg | a2 a2 fa | g2 eg f2 | A3 GFG | AGFE D2 | C2 g2 f2 | e6 :: A4 a2 | %9
 (ag)(gf)(fe) | A4 g2 | (gf)(fe)(ed) | B2 B2 B2 | A2 dc d2 | egfgac | d6 :| %16

